X: 13673
T: Follow The Drum
R: jig
M: 6/8
K: Gmajor
|:D|G2 G G2 A|B2 G Bcd|GAG G2 B|A2 B A3|
G2 G G2 A|B2 G Bcd|ged edc|B2 A G2:|
|:z|ABA A2 B|c2 d e2 f|g2 d g2 d|cBA d3|
ABA A2 B|c2 d e2 f|ged edc|B2 A G2:|

